app/dist/common/images/guoguang-electric-coltdchengdu.svg

<svg height="18" viewBox="0 0 18 18" width="18" xmlns="http://www.w3.org/2000/svg"><path d="m0 0h18v18h-18z" fill="#f0f3fa"/><g fill="#da251c"><path d="m12 4.94-.83 2.65a2.6 2.6 0 0 0 -2.17-1.09c-1.5 0-2.67.94-2.67 2.5s1.5 2.5 2.67 2.5c.94 0 1.28-.1 1.5-.31l-.67 2.81h-.83c-2 0-5-1.25-5-5s3.17-5 5-5c1.47 0 2.61.63 3 .94z"/><path d="m11.83 10h-1.33c.53 0 .56.46.5.72l-.67 3.28h.67zm1 0h-.66l-.84 4h.67zm1 0h-.66l-.84 4h.67z"/><circle cx="13" cy="8" r="1"/></g></svg>

<!-- by TradingView --><svg width="18" height="18" viewBox="0 0 18 18" xmlns="http://www.w3.org/2000/svg"><path fill="#F0F3FA" d="M0 0h18v18H0z"/><path d="m12 4.94-.83 2.65A2.6 2.6 0 0 0 9 6.5c-1.5 0-2.67.94-2.67 2.5s1.5 2.5 2.67 2.5c.94 0 1.28-.1 1.5-.31L9.83 14H9c-2 0-5-1.25-5-5s3.17-5 5-5c1.47 0 2.61.63 3 .94Z" fill="#DA251C"/><path d="M11.83 10H10.5c.53 0 .56.46.5.72L10.33 14H11l.83-4ZM12.83 10h-.66l-.84 4H12l.83-4ZM13.83 10h-.66l-.84 4H13l.83-4Z" fill="#DA251C"/><circle cx="13" cy="8" r="1" fill="#DA251C"/></svg>
